X:42
T:Codlins and Cream
C:Bryon Bonnett
S:Band Swing, Pete Mac
M:4/4
R:reel
Q:1/2=120
L:1/4
K:G
d|"G"BddG/A/|"G"BddG/A/|"G"Bdd^c|"D7"c2-c2|"D7"f>ffe|"D7"edd>e|
"D7"d^de=d|"G"B3 G/A/|"G"BddG/A/|"G"Bdd>d|"G7"ggf =f|"C"e2-e2|
"C"ggfe|"G"gdd>e|"D7"dcBA|"G"G3"G7"d||"C"ggf=f|"C"eg2e|
"G"ddBc|"G"d3e/f/|"C"ggf=f|"C"eg2e|"G"dBGB|"D7"A3G/A/|
"G"BddG/A/|"G"Bdd>d|"G7"ggf=f|"C"e3e/f/|"C"ggeg|"G"edB>c|"D7"d^def|"G"g3||
%%newpage
